X: 25240
T: Mama's Pet
R: reel
M: 4/4
K: Gmajor
G2BG EGDE|G2BG dGBA|G2BG EGD2|B/c/d ed BAAB:|
dBGB d3e|dBGB ~e3g|dBGB dGBd|eged BAAB|
dBGB dGBd|g2bg egdB|~G3B ~A3B|dged BAAB||

